X:1
T:Glorious Things of Thee Are Spoken
T:Text: John Newton (1725-1807), alt. Tune: Franz Joseph Haydn (1732-1809)
T:87 87D AUSTRIAN HYMN www.hymnary.org/text/glorious_things_of_thee_are_spoken
T:Glorious Things of Thee Are Spoken
T:This hymn is in the public domain.  You may freely use this score for personal and congregational worship.  If you reproduce the score, please credit Hymnary.org as the source. 
T:This hymn is in the public domain.  You may freely use this score for personal and congregational worship.  If you reproduce the score, please credit Hymnary.org as the source. 
Z:This hymn is in the public domain.  You may freely use this score for personal and congregational worship.  If you reproduce the score, please credit Hymnary.org as the source.
%%score ( 1 2 ) ( 3 4 )
L:1/8
M:4/4
K:Eb
V:1 treble nm="Piano" snm="Pno."
V:2 treble 
V:3 bass nm="Piano" snm="Pno."
V:4 bass 
V:1
 E3 F [EG]2 [DF]2 | [B,A]2 [B,G]2 FD [B,E]2 | c2 [EB]2 [FA]2 [EG]2 | F2 GE [DB]4 | %4
w: 3~Round each ha- bi-|ta- tion ho- * vering,|see the cloud and|fire ap- * pear,|
w: 1~Glo- rious things of|thee are spo- * ken,|Zi- on, ci- ty|of our _ God;|
w: 2~See the streams of|li- ving wa- * ters,|spring- ing from e-|ter- nal _ love,|
 E3 F [EG]2 [DF]2 | [B,A]2 [B,G]2 FD [B,E]2 | c2 [EB]2 [FA]2 [EG]2 | F2 GE [DB]4 | %8
w: for a glo- ry|and a cov- * ering,|sho- wing that the|Lord is _ near!|
w: he whose Word can-|not be bro- * ken|formed you for his|own a- * bode.|
w: well sup- ply your|sons and daugh- * ters|and all fear of|want re- * move.|
 [B,F]2 [B,G]2 FD B,2 | [B,A]2 [B,G]2 FD B,2 | [B,B]2 A2 [EG]3 [EG] | [E=A]3 [EA] [DB]4 | %12
w: Thus de- ri- * ving|from their ban- * ner|light by night and|shade by day,|
w: On the Rock _ of|A- ges foun- * ded,|what can shake your|sure re- pose?|
w: Who can faint _ while|such a ri- * ver|e- ver flows their|thirst as- suage?|
 [Ee]3 [Ed] dc [EB]2 | [Ec]3 [EB] BA [EG]2 | [DF]2 GA Bc[EA][CF] | [B,E]2 GF E4 |] %16
w: safe they feed _ up-|on the man- * na|which God _ gives _ them _|on their _ way.|
w: With sal- va- * tion's|walls sur- roun- * ded,|you may _ smile _ at _|all your _ foes.|
w: Grace, which like _ the|Lord, the gi- * ver,|ne- ver _ fails _ from _|age to _ age.|
V:2
 E3 E x4 | x4 B,2 x2 | CD x6 | F2 E2 x4 | E3 E x4 | x4 B,2 x2 | CD x6 | F2 E2 x4 | x4 B,2 B,2 | %9
 x4 B,2 B,2 | x2 CD x4 | x8 | x4 E2 x2 | x4 F2 x2 | x2 D2 E2 x2 | x2 D2 E4 |] %16
V:3
 [E,G,]3 [E,A,] [E,B,]2 [B,,B,]2 | [D,F,]2 [E,G,]2 A,F, [E,G,]2 | A,2 [G,B,]2 [D,B,]2 [E,B,]2 | %3
 [A,,C]2 [=A,,C]2 [B,,F,]4 | [E,G,]3 [E,A,] [E,B,]2 [B,,B,]2 | [D,F,]2 [E,G,]2 A,F, [E,G,]2 | %6
 A,2 [G,B,]2 [D,B,]2 [E,B,]2 | [A,,C]2 [=A,,C]2 [B,,F,]4 | [B,,D,]2 [B,,E,]2 D,F, [B,,D,]2 | %9
 [D,F,]2 E,2 D,F, [B,,D,]2 | [G,,G,]2 F,2 [C,E,]3 [C,E,] | F,3 [F,C] [B,,B,]4 | %12
 [G,B,]3 [G,B,] A,2 [E,G,]2 | A,3 [G,B,] [D,B,]2 [E,B,]2 | [B,,B,]2 [A,,B,]2 B,E,CA, | %15
 [B,,G,]2 B,A, [E,G,]4 |] %16
V:4
 x8 | x4 B,,2 x2 | A,2 x6 | x8 | x8 | x4 B,,2 x2 | A,2 x6 | x8 | x4 B,,2 x2 | x2 E,2 B,,2 x2 | %10
 x2 A,,B,, x4 | F,3 x5 | x4 A,2 x2 | A,3 x5 | x4 G,,2 A,,2 | x2 B,,2 x4 |] %16

